X: 2054
T: Dark Roll
R: reel
C: Rick Gagne
N: 1991 on whistle
M: 4/4
Q: 1/4=175
K: Em
ef | "Em"g/f/efd eB~B2 | gefd e2fg | "A"ae~e2 ^cde^c | "D"dfe^c d2ef | 
"Em"g/f/efd eB~B2 | gefd e2fg | "A"ae~e2 "Bm"bf~f2 | "C"gefd "Em"e2 :|
BG | "Em"EG~G2 AGFG | "C"EG~G2 AGFE | "D"FA~A2 BAFA | "Bm"BFdF BAFA | 
"Em"egfd edBG | "C"AcBG "Am"ABGA | "Em"Be~e2 Bege | "D"fdaf "Em"e2 :|
